X: 2
T:A Man's A Man
M:2/4
L:1/8
Q:200
C:Robbie Burns
R:March
K:A
"(E7)"E  |"A"A>B AE|"D"FA "E"Bd|"A"c>B AE|"D"F3 "E7"G|
"A"A>B AE|"D"FA "E"Bd|"A"c>B "D"AF|"A"E2-"E7"E::! 
d |"A"c>d ec|"D"d>c "Bm"Bd|"A"c>d eE|"D"F3 "Bm"d|
"A"c>d ec|"D" d/2c/2B/2A/2"E7" Bd|"A"c>B "D"AF|
"A"E2-"(E7)"E:||
